X: 17589
T: Hoch Lebe Der Mann Mit Dem Hut
R: slide
M: 12/8
K: Dmajor
D2D D2E FFE D2A|A2G F2E DEF A,2A,|
D2D D2E FFE D2A|1 A^GA BA^G A2B A2A,:|2 A^GA BA^G A2B A2A||
|:B2G GAB A2F F2F|A2F EFA BAA A2A|
EFA A2A BBB A2A|d2d cBA FEF A2A|1 B2B AFA GFE D2A:|2 B2B AFA GFE D2A,||

